**kern	**kern
*part1	*part1
*staff2	*staff1
*I"Piano	*
*clefF4	*clefG2
*k[b-e-a-]	*k[b-e-a-]
=1	=1
4.EE- 4.E-	8r
.	8GL 8B- 8e-
.	8B-J 8e- 8g
4r	8e-L 8g 8b-
.	8B- 8e- 8g
8r	8GJ 8B- 8e-
=	=
8EE-L 8E-	2.ee- 2.gg-X 2.ccc 2.eee-
8An 8c	.
8cJ 8g-X	.
8g-L 8an	.
8c 8g-	.
8AJ 8c	.
=	=
4.EE- 4.E-	8b-L 8ee- 8gg 8bb-
.	8G 8B-
.	8B-J 8e-
4r	8e-L 8g
.	8B- 8e-
8r	8GJ 8B-
=	=
*^	*
2.F	2.BBB- 2.BB-	2.B- 2.d
*v	*v	*
=	=
4.EE- 4.E-	8r
.	8GL 8B- 8e-
.	8B-J 8e- 8g
4r	8e-L 8g 8b-
.	8B- 8e- 8g
8r	8GJ 8B- 8e-
=	=
4.EE- 4.E-	8gL 8b- 8ee-
.	8e- 8g 8b-
.	8gJ 8b- 8ee-
4r	8b-L 8ee- 8gg
.	8g 8b- 8ee-
8r	8e-J 8g 8b-
=	=
2.EEE- 2.EE-	2.gg 2.bb- 2.ggg
==	==
*-	*-
!!!system-decoration: {(s1,s2)}
